source/assets/img/icon-stack.svg

<svg height="44" viewBox="0 0 51 44" width="51" xmlns="http://www.w3.org/2000/svg"><g fill="none" fill-rule="evenodd"><path d="m25.1572266 19.5799762-24.03210261 11.9216246 24.03210261 11.9216245 24.0321025-11.9216245z" stroke="#318ad3"/><path d="m25.1572266 10.5986098-24.03210261 11.9216245 24.03210261 11.9216245 24.0321025-11.9216245z" stroke="#748294"/><path d="m25.1572266.55814117-24.03210261 11.92162453 24.03210261 11.9216245 24.0321025-11.9216245z" stroke="#318ad3"/></g></svg>

<?xml version="1.0" encoding="UTF-8"?>
<svg width="51px" height="44px" viewBox="0 0 51 44" version="1.1" xmlns="http://www.w3.org/2000/svg" xmlns:xlink="http://www.w3.org/1999/xlink">
    <!-- Generator: Sketch 51.3 (57544) - http://www.bohemiancoding.com/sketch -->
    <title>Group 7</title>
    <desc>Created with Sketch.</desc>
    <defs></defs>
    <g id="Page-1" stroke="none" stroke-width="1" fill="none" fill-rule="evenodd">
        <g id="04-docs-start-copy-3" transform="translate(-816.000000, -695.000000)">
            <g id="Group-7" transform="translate(816.000000, 695.000000)">
                <path d="M25.1572266,19.5799762 L1.12512399,31.5016008 L25.1572266,43.4232253 L49.1893291,31.5016008 L25.1572266,19.5799762 Z" id="Rectangle-3-Copy-3" stroke="#318AD3"></path>
                <path d="M25.1572266,10.5986098 L1.12512399,22.5202343 L25.1572266,34.4418588 L49.1893291,22.5202343 L25.1572266,10.5986098 Z" id="Rectangle-3-Copy-5" stroke="#748294"></path>
                <path d="M25.1572266,0.558141166 L1.12512399,12.4797657 L25.1572266,24.4013902 L49.1893291,12.4797657 L25.1572266,0.558141166 Z" id="Rectangle-3-Copy-6" stroke="#318AD3"></path>
            </g>
        </g>
    </g>
</svg>
